!!!COM: Joplin, Scott
!!!CDT: 1868/11/24/-1917/04/01/
!!!OTL: Lily Queen, Ragtime Two-Step
!!!ODT: 1907///
**kern	**kern	**dynam
*staff2	*staff1	*staff1/2
*Ipiano	*Ipiano	*Ipiano
*>[I,A,A1,A,A2,B,B1,B,B2,C,D,D1,D,D2,E,E1,E,E2]	*>[I,A,A1,A,A2,B,B1,B,B2,C,D,D1,D,D2,E,E1,E,E2]	*>[I,A,A1,A,A2,B,B1,B,B2,C,D,D1,D,D2,E,E1,E,E2]
*>norep[I,A,A2,B,B2,C,D,D2,E,E2]	*>norep[I,A,A2,B,B2,C,D,D2,E,E2]	*>norep[I,A,A2,B,B2,C,D,D2,E,E2]
*>I	*>I	*>I
*clefF4	*clefG2	*clefG2
*k[]	*k[]	*k[]
*M2/4	*M2/4	*M2/4
*MM100	*MM100	*MM100
=1-	=1-	=1-
(16GLL	(16gLL	mf
16e	16ee	.
16c	16cc	.
[16GJJ)	([16gJJ)	.
(16GLL]	16gLL]	.
16EJ	16eJ	.
8CJ)	8cJ)	.
=2	=2	=2
*	*^	*
(8AL	16fLL	(8fL	.
.	16cc	.	.
8A-J	16d	8dJ	.
.	16fJJ)	.	.
4G)	16eLK	(4e	.
.	8.ccJ)	.	.
=3	=3	=3	=3
4AA (4A	8.f#	16c (16ccLL	.
.	.	16d 16dd	.
.	.	16d# 16dd#	.
.	16cc	16f# 16ff#JJ)	.
&(4GG&) 4G)	4r	16g 16b 16ggLK	.
.	.	8g 8b 8ee	.
.	.	16fn 16b 16ddnJk	.
*	*v	*v	*
=4	=4	=4
8C 8c	8e 8g 8cc	.
8r	8r	.
8CC 8CL	8cc 8ee 8cccL	.
8C 8cJ	8b- 8cc 8eeJ	.
=5!|:	=5!|:	=5!|:
*>A	*>A	*>A
8FF 8FL	4a 4cc 4ff	.
8A 8c 8fJ	.	.
8AA 8AL	4cc 4ff 4ccc	mf
8AA- 8A-J	.	.
=6	=6	=6
8GG 8GL	4g 4cc 4ee 4gg	.
8G 8c 8eJ	.	.
8E 8eL	4a 4cc 4aa	.
8E- 8e-J	.	.
=7	=7	=7
8D 8dL	16ff#LK	.
.	8b 8dd 8gg	.
8G 8B 8fJ	.	.
.	16ff#Jk	.
8GG 8GL	8b 8dd 8ggL	.
8G 8B 8fJ	16ff#L	.
.	[16cc [16ee [16ggJJ	.
=8	=8	=8
8C 8cL	8cc] 8ee] 8ggL]	.
8CC 8CJ	16cc 16ee (16ggL	.
.	16ff#JJ)	.
8DD 8DL	16cc 16ee (16ggLL	.
.	16ff#J)	.
8EE 8EJ	8cc 8ggJ	.
=9	=9	=9
8FF 8FL	4cc 4ffn 4aa	.
8A 8c 8fJ	.	.
8AA 8AL	4cc 4ff 4ccc	.
8AA- 8A-J	.	.
=10	=10	=10
8GG 8GL	4g 4cc 4ee 4gg	.
8G 8c 8eJ	.	.
4CC# 4C#	4g 4a# 4ee	.
=11	=11	=11
8DD 8DL	4g 4b 4dd	.
8G 8B 8dJ	.	.
8GG 8GL	4dd 4gg 4bb	.
8G 8B 8dJ	.	.
=12	=12	=12
*	*^	*
8DD 8DL	(16aaLL	4cc 4ff#	.
.	16gg#	.	.
8F# 8c 8dJ	16aa	.	.
.	16bbJJ)	.	.
8GG 8GL	4r	8b 8dd 8ggnL	.
8C 8cJ	.	8b- 8cc 8eeJ	.
*	*v	*v	*
=13	=13	=13
8FF 8FL	4a 4cc 4ff	.
8A 8c 8fJ	.	.
8AA 8AL	4cc 4ff 4ccc	.
8AA- 8A-J	.	.
=14	=14	=14
8GG 8GL	4g 4cc 4ee 4gg	.
8G 8c 8eJ	.	.
8E 8eL	4a 4cc 4aa	.
8E- 8e-J	.	.
=15	=15	=15
8D 8dL	16ff#LK	.
.	8b 8dd 8gg	.
8G 8B 8fJ	.	.
.	16ff#Jk	.
8GG 8GL	8b 8dd 8ggL	.
8G 8B 8fJ	16ff#L	.
.	[16cc [16ee [16ggJJ	.
=16	=16	=16
*	*^	*
8E 8eL	4r	8cc] 8ee] 8ggL]	.
8D 8dJ	.	16cc 16ee (16ggL	.
.	.	16ff#JJ)	.
8C 8cL	8ggL	8cc 8eeL	.
8BB 8BJ	16ddL	8e 8g#J	.
.	16eeJJ	.	.
*	*v	*v	*
=17	=17	=17
4AA 4A	4e 4a 4cc	.
4AA- 4A-	4c 4f 4cc	.
=18	=18	=18
4GG 4G	4c 4e 4cc	.
4FF# 4F#	4c 4d# 4a	.
=19	=19	=19
*>A1	*>A1	*>A1
8GG 8GL	4c 4e 4g	.
8GJ	.	.
8C 8cL	8.g 8.cc 8.eeL	.
8G 8c 8eJ	.	.
.	[16f# [16ccJk	.
=20	=20	=20
*	*^	*
8AA 8AL	16ccLL]	8f#L]	.
.	16eeJ	.	.
8GG 8GJ	8ddJ	8fn 8bJ	.
8C 8cL	8e 8g 8ccL	4r	.
8CC 8CJ	8b- 8cc 8eeJ	.	.
*	*v	*v	*
=21:|!	=21:|!	=21:|!
*>A2	*>A2	*>A2
8GG 8GL	4c 4e 4g	.
8GJ	.	.
8C 8cL	8.g 8.cc 8.eeL	.
8G 8c 8eJ	.	.
.	[16f# [16ccJk	.
=22	=22	=22
*	*^	*
8AA 8AL	16ccLL]	8f#L]	.
.	16eeJ	.	.
8GG 8GJ	8ddJ	8fn 8bJ	.
8C 8c	4r	8e 8g 8ccL	.
8r	.	16g 16ggL	.
.	.	16a 16aaJJ	.
*	*v	*v	*
=23!|:	=23!|:	=23!|:
*>B	*>B	*>B
*	*^	*
8D 8dL	(16ffLK	4b	f
.	8bb	.	.
8G 8B 8fJ	.	.	.
.	16aaJk)	.	.
8C# 8c#L	(16eeLK	&(4a#&)	.
.	8aa	.	.
8G 8A# 8eJ	.	.	.
.	16ggJk)	.	.
*	*v	*v	*
=24	=24	=24
8D 8dL	16b 16ggLL	.
.	16g	.
8G 8B 8fJ	16a	.
.	[16bJJ	.
8GG 8GL	16bLL]	.
.	16cc	.
8G 8B 8fJ	16dd	.
.	16dd#JJ	.
=25	=25	=25
8C 8cL	16eeLL	.
.	16g	.
8G 8c 8eJ	16a	.
.	16bJJ	.
(8EE 8EL	16ccLK	.
.	8cc 8dd# 8ff# 8bb	.
8DD#) 8D#J	.	.
.	16cc 16dd# 16ff# 16aaJk	.
=26	=26	=26
8EE 8EL	4cc 4ee 4gg	.
8G 8c 8eJ	.	.
8E 8eL	16r	.
.	8g 8cc 8ggL	.
8E- 8e-J	.	.
.	16cc 16gg 16cccJk	.
=27	=27	=27
4D (4d	8f (8bL	.
.	8f 8b-	.
4C 4c)	8f 8a	.
.	8f 8a-J)	.
=28	=28	=28
8BB 8BL	2f 2g	.
8FF 8FJ	.	.
8EE 8EL	.	.
8DD 8DJ	.	.
=29	=29	=29
*	*^	*
(4CC 4C	4G 4g	8r	.
.	.	8c 8e	.
4CC#) 4C#	4G 4g	8r	.
.	.	8A# 8e	.
=30	=30	=30	=30
(4DD 4D	4.G (4.g	8r	.
.	.	16B 16fLL	.
.	.	16B 16fJJ	.
4GG)	.	8B 8f	.
.	8g 8gg)	8r	.
=31	=31	=31	=31
8D 8dL	(16ffLK	4b	.
.	8bb	.	.
8G 8B 8fJ	.	.	.
.	16aaJk)	.	.
8C# 8c#L	(16eeLK	&(4a#&)	.
.	8aa	.	.
8G 8A# 8eJ	.	.	.
.	16ggJk)	.	.
*	*v	*v	*
=32	=32	=32
8D 8dL	16b 16ggLL	.
.	16g	.
8G 8B 8fJ	16a	.
.	[16bJJ	.
8GG 8GL	16bLL]	.
.	16cc	.
8G 8B 8fJ	16dd	.
.	16dd#JJ	.
=33	=33	=33
8C 8cL	16eeLL	.
.	16g	.
8G 8c 8eJ	16a	.
.	16bJJ	.
8BB- 8B-L	16ccLK	.
.	8aa	.
8G 8c 8eJ	.	.
.	16ggJk	.
=34	=34	=34
8AA 8AL	[4cc	.
8A 8c 8f	.	.
8A 8c 8fJ	16ccLL]	.
.	(16a	.
8r	16cc	.
.	16ffJJ)	.
=35	=35	=35
8FF 8FL	4cc 4ff 4aa	.
8A 8c 8fJ	.	.
8AA- 8A-L	4cc 4ff	.
8A- 8c 8fJ	.	.
=36	=36	=36
*	*^	*
8GG 8GL	4r	4g 4cc 4ee	.
8G 8c 8eJ	.	.	.
8AA 8AL	16r	16r	.
.	8ffL	8.g 8.cc#	.
8G 8A 8c#J	.	.	.
.	16eeJk	.	.
*	*v	*v	*
=37	=37	=37
*>B1	*>B1	*>B1
*	*^	*
8DD 8DL	(8ccnL	4f#	.
8F# 8A 8cJ	8aJ)	.	.
8GG 8GL	16ccLK	16fnLK	.
.	8b 8dd	8f	.
8Fn 8G 8BJ	.	.	.
.	[16ccJk	[16eJk	.
*	*v	*v	*
=38	=38	=38
8C 8c	8e] 8ccL]	.
8r	16g 16ggL	.
.	16g 16ggJJ	.
4r	8g 8ggL	.
.	8a 8aaJ	.
=39:|!	=39:|!	=39:|!
*>B2	*>B2	*>B2
*	*^	*
8DD 8DL	(8ccnL	4f#	.
8F# 8A 8cJ	8aJ)	.	.
8GG 8GL	16ccLK	16fnLK	.
.	8dd	8f 8b	.
8Fn 8G 8BJ	.	.	.
.	[16ccJk	[16eJk	.
*	*v	*v	*
=40	=40	=40
8C 8cL	4.e] 4.cc]	.
8GG 8G	.	.
8CC 8C	.	.
8C 8cJ	8b- 8cc 8ee	.
=41	=41	=41
*>C	*>C	*>C
8FF 8FL	4a 4cc 4ff	mf
8A 8c 8fJ	.	.
8AA 8AL	4cc 4ff 4ccc	.
8AA- 8A-J	.	.
=42	=42	=42
8GG 8GL	4g 4cc 4ee 4gg	.
8G 8c 8eJ	.	.
8E 8eL	4a 4cc 4aa	.
8E- 8e-J	.	.
=43	=43	=43
8D 8dL	16ff#LK	.
.	8b 8dd 8gg	.
8G 8B 8fJ	.	.
.	16ff#Jk	.
8GG 8GL	16b 16dd 16ggLK	.
.	8ff#	.
8G 8B 8fJ	.	.
.	[16cc [16ee [16ggJk	.
=44	=44	=44
8C 8cL	16cc] 16ee] 16ggLK]	.
.	8cc 8ee (8gg	.
8CC 8CJ	.	.
.	16ff#Jk)	.
8DD 8DL	16cc 16ee (16ggLK	.
.	8ff#)	.
8EE 8EJ	.	.
.	16cc 16ggJk	.
=45	=45	=45
8FF 8FL	4cc 4ffn 4aa	.
8A 8c 8fJ	.	.
8AA 8AL	4cc 4ff 4ccc	.
8AA- 8A-J	.	.
=46	=46	=46
8GG 8GL	4g 4cc 4ee 4gg	.
8G 8c 8eJ	.	.
4CC# 4C#	4g 4a# 4ee	.
=47	=47	=47
8DD 8DL	4g 4b 4dd	.
8G 8B 8dJ	.	.
8GG 8GL	4dd 4gg 4bb	.
8G 8B 8dJ	.	.
=48	=48	=48
*	*^	*
8DD 8DL	(16aaLL	4cc 4ff#	.
.	16gg#	.	.
8F# 8c 8dJ	16aa	.	.
.	16bbJJ)	.	.
8GG 8GL	4r	8b 8dd 8ggnL	.
8C 8cJ	.	8b- 8cc 8eeJ	.
*	*v	*v	*
=49	=49	=49
8FF 8FL	4a 4cc 4ff	.
8A 8c 8fJ	.	.
8AA 8AL	4cc 4ff 4ccc	.
8AA- 8A-J	.	.
=50	=50	=50
8GG 8GL	4g 4cc 4ee 4gg	.
8G 8c 8eJ	.	.
8E 8eL	4a 4cc 4aa	.
8E- 8e-J	.	.
=51	=51	=51
8D 8dL	16ff#LK	.
.	8b 8dd 8gg	.
8G 8B 8fJ	.	.
.	16b 16dd 16ff#Jk	.
8GG 8GL	8b 8dd 8ggL	.
8G 8B 8fJ	16ff#L	.
.	[16cc [16ee [16ggJJ	.
=52	=52	=52
*	*^	*
8E 8eL	4r	8cc] 8ee] 8ggL]	.
8D 8dJ	.	16cc 16ee (16ggL	.
.	.	16ff#JJ)	.
8C 8cL	8ggL	8cc 8eeL	.
8BB 8BJ	(16ddL	8e 8g#J	.
.	16eeJJ)	.	.
*	*v	*v	*
=53	=53	=53
4AA 4A	4e 4a 4cc	.
4AA- 4A-	4c 4f 4cc	.
=54	=54	=54
4GG 4G	4c 4e 4cc	.
4FF# 4F#	4c 4d# 4a	.
=55	=55	=55
8GG 8GL	4c 4e 4g	.
8GJ	.	.
8C 8cL	8.g 8.cc 8.eeL	.
8G 8c 8eJ	.	.
.	[16f# 16ccJk	.
=56	=56	=56
*	*^	*
8AA 8AL	16ccLL	8f#L]	.
.	16eeJ	.	.
8GG 8GJ	8ddJ	8fn 8bJ	.
8C 8c	8e 8cc	4r	.
8r	8r	.	.
*	*v	*v	*
=57!|:	=57!|:	=57!|:
*>D	*>D	*>D
*k[b-]	*k[b-]	*k[b-]
*	*^	*
8FF 8FL	8aaL	(4cc 4ff	p
8A 8c 8fJ	16aaL	.	.
.	&(16gg#JJ&)	.	.
8FF# 8F#L	8aaL	4dd#)	.
8A 8c 8d#J	(16aaL	.	.
.	16aa-JJ)	.	.
=58	=58	=58	=58
8GG 8GL	(16ggLK	4ee	.
.	8.cccJ)	.	.
8B- 8c 8eJ	.	.	.
8CC 8CL	16r	16r	.
.	16ccLL	(16ccLK	.
8B- 8c 8eJ	16dd	8b-J	.
.	16eeJJ)	.	.
*	*v	*v	*
=59	=59	=59
8FF 8FL	8a 8ffL	.
8e-	8cc	.
8d	8bn	.
8d-J	8b-J	.
=60	=60	=60
8cL	8aL	.
8Bn	8g#	.
8B-	8gn	.
8CC 8CJ	8e 8b- 8ccJ	.
=61	=61	=61
*	*^	*
8FF 8FL	8aaL	(4cc 4ff	.
8A 8c 8fJ	16aaL	.	.
.	&(16gg#JJ&)	.	.
8FF# 8F#L	8aaL	4dd#)	.
8A 8c 8d#J	(16aaL	.	.
.	16bbnJJ)	.	.
=62	=62	=62	=62
8GG 8GL	(16cccLK	4ee	.
.	8.ggJ)	.	.
8G 8c 8eJ	.	.	.
4G 4c 4e	8r	8r	.
.	(16eeLL	8cc	.
.	16ffJJ)	.	.
=63	=63	=63	=63
8EE 8EL	(16ggLK	4cc	.
.	8.aaJ)	.	.
8G 8c 8eJ	.	.	.
8GG 8GL	16g 16bn 16eeLK	4r	.
.	8f 8b 8dd	.	.
8G 8BnJ	.	.	.
.	[16e [16g [16ccJk	.	.
*	*v	*v	*
=64	=64	=64
8C 8cL	2e] 2g] 2cc]	.
8BB- 8B-	.	.
8AA 8A	.	.
8GG 8GJ	.	.
=65	=65	=65
*	*^	*
8FF 8FL	8aaL	(4cc 4ff	.
8A 8c 8fJ	16aaL	.	.
.	&(16gg#JJ&)	.	.
8FF# 8F#L	8aaL	4dd#)	.
8A 8c 8d#J	(16aaL	.	.
.	16aa-JJ)	.	.
=66	=66	=66	=66
8GG 8GL	(16ggLK	4ee	.
.	8.cccJ)	.	.
8B- 8c 8eJ	.	.	.
8CC 8CL	16r	16r	.
.	(16ccLL	16ccLL	.
8G 8B- 8c 8eJ	16dd	16dd	.
.	16eeJJ)	16eeJJ	.
=67	=67	=67	=67
8FF 8FL	4r	4ee- 4ff	.
8F 8A 8c 8e-J	.	.	.
8AA 8AL	16ggLK	8.ee-L	.
.	8aa	.	.
8F 8A 8c 8e-J	.	.	.
.	[16ffJk	[16ddJk	.
=68	=68	=68	=68
8BB- 8B-L	2ff]	2dd]	.
8FF 8FJ	.	.	.
8EE 8EL	.	.	.
8EE- 8E-J	.	.	.
*	*v	*v	*
=69	=69	=69
8DD 8DL	4cc 4ff# 4aa	.
8F# 8c 8dJ	.	.
8D 8dL	4cc 4dd	.
8C 8cJ	.	.
=70	=70	=70
*	*^	*
8BB- 8B-L	(16ggLL	4dd	.
.	16aa	.	.
8G 8B- 8dJ	16bb-	.	.
.	16ggJJ)	.	.
8DD 8DL	8aaL	8b- 8ddL	.
8DD- 8D-J	8ggJ	8b- 8ffJ	.
*	*v	*v	*
=71	=71	=71
*>D1	*>D1	*>D1
8CC 8CL	4cc 4ff 4aa	.
8A 8c 8fJ	.	.
8CC 8CL	16cc 16ee 16aaLK	.
.	8b- 8ee 8gg	.
8B- 8c 8eJ	.	.
.	[16a [16cc [16ffJk	.
=72	=72	=72
*	*^	*
8FF 8F	8r	8a] 8cc] 8ffL]	.
8r	16ccLL	16ccL	.
.	16ccJJ	16ccJJ	.
4C 4B-	(8ggL	4cc 4ee	.
.	8gg#J)	.	.
*	*v	*v	*
=73:|!	=73:|!	=73:|!
*>D2	*>D2	*>D2
8CC 8CL	4cc 4ff 4aa	.
8A 8c 8fJ	.	.
8CC 8CL	16cc 16ee 16aaLK	.
.	8b- 8ee 8gg	.
8B- 8c 8eJ	.	.
.	[16a [16cc [16ffJk	.
=74	=74	=74
8FF 8FL	4a] 4cc] 4ff]	<
8CC 8C	.	.
8DD 8D	4cc 4gg 4bb-	.
8EE 8EJ	.	.
=75!|:	=75!|:	=75!|:
*>E	*>E	*>E
8FF 8FL	16aaLL	mf
.	16dddJ	.
8A 8c 8fJ	8aa 8cccJ	.
8CC 8CL	16aaLL	.
.	16ddd	.
8A 8c 8fJ	16aa 16ccc	.
.	[16ff [16aa [16cccJJ	.
=76	=76	=76
8FF 8FL	4ff] 4aa] 4ccc]	.
8FF 8FJ	.	.
8GG 8GL	4ee- 4aa 4ccc	.
8AA 8AJ	.	.
=77	=77	=77
8BB- 8B-L	16ddLL	.
.	16ggJ	.
8B- 8d 8fJ	8dd 8ffJ	.
8GG 8GL	16ddLL	.
.	16gg	.
8GG# 8G#J	16dd 16ff	.
.	[16cc [16ffJJ	.
=78	=78	=78
8AA 8AL	4cc] 4ff]	.
8CC 8CJ	.	.
8DD 8DL	4cc 4gg 4bb-	.
8EE 8EJ	.	.
=79	=79	=79
8FF 8FL	16aaLL	.
.	16dddJ	.
8A 8c 8fJ	8aa 8cccJ	.
8CC 8CL	16aaLL	.
.	16ddd	.
8A 8c 8fJ	16aa 16ccc	.
.	[16ff [16aa [16cccJJ	.
=80	=80	=80
8FF 8FL	4ff_ 4aa_ 4ccc_	.
8A 8c 8fJ	.	.
8AA 8AL	16ff] 16aa] 16cccLK]	.
.	8cc 8ccc	.
8FF 8FJ	.	.
.	16dd 16dddJk	.
=81	=81	=81
*	*^	*
8EE 8EL	16eeeLL	8.ee 8.aaL	.
.	16ccc	.	.
8A 8c 8eJ	16aa	.	.
.	[16cccJJ	[16dd [16gg#Jk	.
8EE 8EL	4r	8dd] 8gg#] 8cccL]	.
8G# 8d 8eJ	.	8dd 8gg# 8bbnJ	.
*	*v	*v	*
=82	=82	=82
8AA 8AL	8cc 8ee 8aaL	.
8FF# 8F#J	8cc 8dd# 8aaJ	.
8GG 8GL	4cc 4ee 4bb-	.
8CC 8CJ	.	.
=83	=83	=83
8FF 8FL	16aaLL	.
.	16dddJ	.
8A 8c 8fJ	8aa 8cccJ	.
8CC 8CL	16aaLL	.
.	16ddd	.
8A 8c 8fJ	16aa 16ccc	.
.	[16ff [16aa [16cccJJ	.
=84	=84	=84
8FF 8FL	4ff] 4aa] 4ccc]	.
8FF 8FJ	.	.
8GG 8GL	4ee- 4aa 4ccc	.
8AA 8AJ	.	.
=85	=85	=85
8BB- 8B-L	16ddLL	.
.	16ggJ	.
8B- 8d 8fJ	8dd 8ffJ	.
8GG 8GL	16ddLL	.
.	16gg	.
8GG# 8G#J	16dd 16ff	.
.	[16cc [16ffJJ	.
=86	=86	=86
8AA 8AL	4cc_ 4ff_	.
8A 8c 8fJ	.	.
8AA 8AL	16cc] 16ffLK]	.
.	8cc 8ccc	.
8GG 8GJ	.	.
.	16cc# 16ccc#Jk	.
=87	=87	=87
8FF# 8F#L	8dd 8aa 8dddL	.
8F# 8c 8dJ	[8cc [8aa [8cccJ	.
8D 8dL	8cc] 8aa] 8cccL]	.
8C 8cJ	8dd 8ff# 8aaJ	.
=88	=88	=88
*	*^	*
8BB- 8B-L	16ggLL	4dd	.
.	16aa	.	.
8G 8B- 8dJ	16bb-	.	.
.	16ggJJ	.	.
8DD 8DL	4r	8b- 8dd 8aaL	.
8DD- 8D-J	.	8b- 8ff 8ggJ	.
*	*v	*v	*
=89	=89	=89
*>E1	*>E1	*>E1
8CC 8CL	4cc 4ff 4aa	.
8A 8c 8fJ	.	.
8CC 8CL	16cc 16ee 16aaLK	.
.	8b- 8ee 8gg	.
8B- 8c 8eJ	.	.
.	[16a [16cc [16ffJk	.
=90	=90	=90
8FF 8FL	4a] 4cc] 4ff]	.
8CC 8C	.	.
8DD 8D	4cc 4gg 4bb-	.
8EE 8EJ	.	.
=91:|!	=91:|!	=91:|!
*>E2	*>E2	*>E2
8CC 8CL	4cc 4ff 4aa	.
8A 8c 8fJ	.	.
8CC 8CL	16cc 16ee 16aaLK	.
.	8b- 8ee 8gg	.
8B- 8c 8eJ	.	.
.	[16a [16cc [16ffJk	.
=92	=92	=92
8FF 8FL	4a] 4cc] 4ff]	.
8C	.	.
8FFJ	8ff 8aa 8ccc 8fff	.
8r	8r	.
==	==	==
*-	*-	*-
!!!ENC: Craig Stuart Sapp
!!!END: 2005/04/08
!!!EEV: 2018/06/01
